icons/breezeDark/actions/16/folder-sync.svg

<svg viewBox="0 0 16 16" xmlns="http://www.w3.org/2000/svg"><path d="m2 2v1 3 1 6 1h7v-1h-6v-6h10v2h1v-3-1-1h-4.9921875l-2-2-.0078125.0078125v-.0078125h-4zm1 1h3.5917969l1.0019531 1h-.59375v.0078125l-.0078125-.0078125-2 2h-1.9921875zm8.5 6a2.4999997 2.5000003 0 0 0 -2.5 2.5 2.4999997 2.5000003 0 0 0 .4160156 1.376953l.7324224-.732422a1.5 1.5 0 0 1 -.148438-.644531 1.5 1.5 0 0 1 1.5-1.5 1.5 1.5 0 0 1 .644531.148438l.732422-.7324224a2.4999997 2.5000003 0 0 0 -1.376953-.4160156zm2.083984 1.123047-.732422.732422a1.5 1.5 0 0 1 .148438.644531 1.5 1.5 0 0 1 -1.5 1.5 1.5 1.5 0 0 1 -.644531-.148438l-.732422.732422a2.4999997 2.5000003 0 0 0 1.376953.416016 2.4999997 2.5000003 0 0 0 2.5-2.5 2.4999997 2.5000003 0 0 0 -.416016-1.376953z" fill="#c0c0c0"/></svg>

<svg xmlns="http://www.w3.org/2000/svg" viewBox="0 0 16 16">
  <defs id="defs3051">
    <style type="text/css" id="current-color-scheme">
      .ColorScheme-Text {
        color:#c0c0c0;
      }
      </style>
  </defs>
 <path style="fill:currentColor;fill-opacity:1;stroke:none" 
     d="M 2 2 L 2 3 L 2 6 L 2 7 L 2 13 L 2 14 L 9 14 L 9 13 L 3 13 L 3 7 L 13 7 L 13 9 L 14 9 L 14 6 L 14 5 L 14 4 L 9.0078125 4 L 7.0078125 2 L 7 2.0078125 L 7 2 L 3 2 L 2 2 z M 3 3 L 6.5917969 3 L 7.59375 4 L 7 4 L 7 4.0078125 L 6.9921875 4 L 4.9921875 6 L 3 6 L 3 3 z M 11.5 9 A 2.4999997 2.5000003 0 0 0 9 11.5 A 2.4999997 2.5000003 0 0 0 9.4160156 12.876953 L 10.148438 12.144531 A 1.5 1.5 0 0 1 10 11.5 A 1.5 1.5 0 0 1 11.5 10 A 1.5 1.5 0 0 1 12.144531 10.148438 L 12.876953 9.4160156 A 2.4999997 2.5000003 0 0 0 11.5 9 z M 13.583984 10.123047 L 12.851562 10.855469 A 1.5 1.5 0 0 1 13 11.5 A 1.5 1.5 0 0 1 11.5 13 A 1.5 1.5 0 0 1 10.855469 12.851562 L 10.123047 13.583984 A 2.4999997 2.5000003 0 0 0 11.5 14 A 2.4999997 2.5000003 0 0 0 14 11.5 A 2.4999997 2.5000003 0 0 0 13.583984 10.123047 z "
     class="ColorScheme-Text"
     />
</svg>
